svg/emoji_u1f345.svg

<svg width="128" height="128" viewBox="0 0 128 128" fill="none" xmlns="http://www.w3.org/2000/svg">
<path d="M119.77 69.3799C119.77 69.3799 121.48 56.3299 118.37 50.4299C115.26 44.5299 105.66 31.4999 85.7501 29.1499C75.1901 27.9099 68.0401 29.3099 61.5201 30.0799C57.3901 30.5699 49.7001 28.0299 35.8901 31.1699C25.6501 33.4999 10.1101 42.5099 5.06012 61.9299C2.40012 72.1599 3.41012 83.2099 7.94012 92.5199C16.6401 110.38 32.7901 114.73 32.7901 114.73L65.2501 117.37L104.55 100.75L119.77 69.3799Z" fill="#FF2A23" style="fill:#FF2A23;fill:color(display-p3 1.0000 0.1647 0.1373);fill-opacity:1;"/>
<path d="M82.03 119.08C102.69 115.04 120.55 96.5599 123.66 76.9899C126.57 58.6799 115.87 46.4099 115.87 46.4099C115.87 46.4099 117.09 56.1799 114.81 66.5899C112.36 77.7299 105.27 96.2999 82.81 106.82C55.24 119.73 25.04 111.22 25.04 111.22C25.04 111.22 45.56 126.21 82.03 119.08Z" fill="#DC0D27" style="fill:#DC0D27;fill:color(display-p3 0.8627 0.0510 0.1529);fill-opacity:1;"/>
<path d="M24.9201 52.7601C19.4301 51.3401 12.5801 55.4901 11.5901 67.6401C10.6801 78.7701 16.7101 92.1801 22.6201 90.5801C27.6401 89.2201 22.8101 79.9201 24.6001 72.2901C26.4101 64.6601 33.2901 54.9301 24.9201 52.7601Z" fill="#FED3B0" style="fill:#FED3B0;fill:color(display-p3 0.9961 0.8275 0.6902);fill-opacity:1;"/>
<path d="M42.274 55.7989C33.1799 55.8731 32.1606 49.1303 32.1606 49.1303C32.1606 48.7925 31.9927 48.3755 31.8311 47.9739C31.525 47.2134 31.2411 46.5081 32.1607 46.5C33.5758 46.5 46.5688 45.8888 46.5688 45.8888L49.0823 40.21C49.0823 40.21 45.5792 38.0696 43.4912 35.9168C41.9097 34.2782 41.3196 32.9782 40.4782 31.1249C40.3651 30.8758 40.2475 30.6167 40.1223 30.3454C42.1815 30.0129 44.0828 29.8087 45.8375 29.6941L54.3666 36.8447L65.7863 35.0013L69.3676 29.1098C71.7871 28.8556 74.3868 28.6668 77.2639 28.6577C75.3137 31.8401 74.3263 37.1169 74.3263 37.1169L82.4903 38.7748C82.4903 38.7748 89.2491 38.6139 90.2881 38.849C90.7643 38.9567 91.4233 38.4955 92.0566 38.0522C92.8053 37.5281 93.5182 37.0292 93.8506 37.5252C94.4641 38.4531 93.1974 42.4988 89.8329 45.1217C87.0225 47.324 81.9163 48.4622 77.3247 48.1529C75.3357 48.0168 74.3956 51.6295 74.3956 51.6295C74.3956 51.6295 81.3523 56.5802 83.2522 59.5C83.7217 59.5 83.7674 62.5774 83.801 64.8355C83.8085 65.3384 83.8154 65.8006 83.8262 66.1791C83.8856 68.2453 74.8607 69.433 68.6066 64.7811C66.6647 63.3362 64.9709 61.3714 63.3446 59.4848C61.2249 57.0258 59.2199 54.6998 56.9296 53.8317C54.9183 53.0693 53.5301 53.5322 51.5275 54.1999C49.5005 54.8758 46.8438 55.7616 42.274 55.7989Z" fill="#DC0D27" style="fill:#DC0D27;fill:color(display-p3 0.8627 0.0510 0.1529);fill-opacity:1;"/>
<path d="M31.87 46.05C31.09 47.06 32.9 51.5 42.09 51.44C51.27 51.38 52.81 48.61 56.9 49.85C60.99 51.09 64.18 56.01 68.7 58.7C75.02 62.46 84.14 61.5 84.08 59.83C84.02 58.15 81.79 59.01 79.87 56.66C77.95 54.3 74.55 48.07 74.55 48.07C74.55 48.07 75.5 45.15 77.51 45.26C82.15 45.51 87.31 44.59 90.15 42.81C93.55 40.69 94.83 37.42 94.21 36.67C93.59 35.93 91.66 37.93 90.61 37.74C89.56 37.55 82.73 37.68 82.73 37.68L74.48 36.34C74.48 36.34 75.61 31.51 77.84 29.03C80.07 26.55 83.57 23.14 83.5 22.71C83.43 22.28 80.62 22.66 80.62 22.66L71.93 26.63L65.85 34.63L54.31 36.12L43.2 28.67C43.2 28.67 36.83 23.53 36.54 23.65C34.93 24.31 37.38 26.76 39.23 29.72C40.83 32.29 41.16 33.58 43.32 35.37C45.43 37.11 48.97 38.84 48.97 38.84L46.43 43.43C46.43 43.43 38.24 46.66 36.81 46.66C35.39 46.67 32.3 45.5 31.87 46.05Z" fill="#597D1E" style="fill:#597D1E;fill:color(display-p3 0.3492 0.4917 0.1168);fill-opacity:1;"/>
<path d="M57.5098 43.28C60.8598 43.53 63.2798 47.98 66.2998 51.01C70.7098 55.42 74.1598 57.72 77.8698 58.59C79.7298 59.02 83.9998 59.73 83.9998 59.73C83.9998 59.73 84.6198 59.3 82.5098 58.12C80.3998 56.94 79.1298 54.68 78.8198 53.63C78.5098 52.58 77.5398 49.13 75.4998 46.27C73.4598 43.41 71.1398 42.2 71.8798 40.9C72.6198 39.6 79.0198 41.8 85.1798 40.81C93.3098 39.51 94.5498 36.9 94.1798 36.59C93.8098 36.28 88.7798 37.77 86.2398 37.21C83.6998 36.65 81.5198 34.91 77.6798 34.91C75.0598 34.91 72.4998 35.86 71.8098 34.43C71.2298 33.23 73.4098 29.22 75.0698 27.71C79.0998 24.05 83.4498 23.18 83.4498 22.68C83.4498 21.65 76.3798 21.07 71.4798 24.98C66.5998 28.87 67.5198 33.98 61.1798 33.98C59.0698 33.98 58.2598 33.48 58.2598 33.48C58.2598 33.48 55.4298 31.15 51.6498 29.1C47.8698 27.05 45.0198 27.96 42.8398 26.91C40.6698 25.86 36.8198 23.14 36.4498 23.69C36.0798 24.24 39.3398 27.96 43.4398 31C47.5398 34.04 52.1298 35.59 50.8198 36.83C49.5198 38.07 47.3498 38.88 45.2998 40.43C43.2498 41.98 41.4498 44.21 38.9698 45.02C36.4898 45.83 32.4098 45.26 31.8498 45.94C31.2898 46.62 36.1698 48.97 43.7998 47.55C51.4098 46.13 51.4298 42.83 57.5098 43.28Z" fill="#94A61D" style="fill:#94A61D;fill:color(display-p3 0.5804 0.6510 0.1137);fill-opacity:1;"/>
<path d="M65.1201 4.94002C63.4501 4.86002 61.3401 6.18002 61.3401 6.18002C61.3401 6.18002 58.2801 9.91002 57.0701 19.17C56.5101 23.45 57.1201 29.2 57.0001 32.37C56.8801 35.53 56.1901 36.71 56.3801 38.33C56.5701 39.94 58.2601 41.76 62.1701 41.72C65.3101 41.69 66.9301 39.26 66.8701 38.39C66.8101 37.52 64.1201 28.65 64.8801 20.83C65.5901 13.56 68.2401 8.54002 68.3501 7.49002C68.4101 6.92002 67.6601 5.06002 65.1201 4.94002Z" fill="#728035" style="fill:#728035;fill:color(display-p3 0.4471 0.5020 0.2078);fill-opacity:1;"/>
</svg>

<?xml version="1.0" encoding="utf-8"?>
<!-- Generator: Adobe Illustrator 25.2.3, SVG Export Plug-In . SVG Version: 6.00 Build 0)  -->
<svg version="1.1" id="Layer_3" xmlns="http://www.w3.org/2000/svg" xmlns:xlink="http://www.w3.org/1999/xlink" x="0px" y="0px"
	 viewBox="0 0 128 128" style="enable-background:new 0 0 128 128;" xml:space="preserve">
<path style="fill:#FF2A23;" d="M119.77,69.38c0,0,1.71-13.05-1.4-18.95S105.66,31.5,85.75,29.15c-10.56-1.24-17.71,0.16-24.23,0.93
	c-4.13,0.49-11.82-2.05-25.63,1.09C25.65,33.5,10.11,42.51,5.06,61.93C2.4,72.16,3.41,83.21,7.94,92.52
	c8.7,17.86,24.85,22.21,24.85,22.21l32.46,2.64l39.3-16.62L119.77,69.38z"/>
<path style="fill:#DC0D27;" d="M82.03,119.08c20.66-4.04,38.52-22.52,41.63-42.09c2.91-18.31-7.79-30.58-7.79-30.58
	s1.22,9.77-1.06,20.18c-2.45,11.14-9.54,29.71-32,40.23c-27.57,12.91-57.77,4.4-57.77,4.4S45.56,126.21,82.03,119.08z"/>
<path style="fill:#FED3B0;" d="M24.92,52.76c-5.49-1.42-12.34,2.73-13.33,14.88c-0.91,11.13,5.12,24.54,11.03,22.94
	c5.02-1.36,0.19-10.66,1.98-18.29C26.41,64.66,33.29,54.93,24.92,52.76z"/>
<path style="fill:#BDCF44;" d="M31.87,46.05c-0.78,1.01,1.03,5.45,10.22,5.39c9.18-0.06,10.72-2.83,14.81-1.59
	c4.09,1.24,7.28,6.16,11.8,8.85c6.32,3.76,15.44,2.8,15.38,1.13c-0.06-1.68-2.29-0.82-4.21-3.17c-1.92-2.36-5.32-8.59-5.32-8.59
	s0.95-2.92,2.96-2.81c4.64,0.25,9.8-0.67,12.64-2.45c3.4-2.12,4.68-5.39,4.06-6.14c-0.62-0.74-2.55,1.26-3.6,1.07
	s-7.88-0.06-7.88-0.06l-8.25-1.34c0,0,1.13-4.83,3.36-7.31c2.23-2.48,5.73-5.89,5.66-6.32s-2.88-0.05-2.88-0.05l-8.69,3.97l-6.08,8
	l-11.54,1.49L43.2,28.67c0,0-6.37-5.14-6.66-5.02c-1.61,0.66,0.84,3.11,2.69,6.07c1.6,2.57,1.93,3.86,4.09,5.65
	c2.11,1.74,5.65,3.47,5.65,3.47l-2.54,4.59c0,0-8.19,3.23-9.62,3.23C35.39,46.67,32.3,45.5,31.87,46.05z"/>
<path style="fill:#94A61D;" d="M57.51,43.28c3.35,0.25,5.77,4.7,8.79,7.73c4.41,4.41,7.86,6.71,11.57,7.58
	c1.86,0.43,6.13,1.14,6.13,1.14s0.62-0.43-1.49-1.61c-2.11-1.18-3.38-3.44-3.69-4.49c-0.31-1.05-1.28-4.5-3.32-7.36
	s-4.36-4.07-3.62-5.37c0.74-1.3,7.14,0.9,13.3-0.09c8.13-1.3,9.37-3.91,9-4.22c-0.37-0.31-5.4,1.18-7.94,0.62
	c-2.54-0.56-4.72-2.3-8.56-2.3c-2.62,0-5.18,0.95-5.87-0.48c-0.58-1.2,1.6-5.21,3.26-6.72c4.03-3.66,8.38-4.53,8.38-5.03
	c0-1.03-7.07-1.61-11.97,2.3c-4.88,3.89-3.96,9-10.3,9c-2.11,0-2.92-0.5-2.92-0.5s-2.83-2.33-6.61-4.38
	c-3.78-2.05-6.63-1.14-8.81-2.19c-2.17-1.05-6.02-3.77-6.39-3.22s2.89,4.27,6.99,7.31s8.69,4.59,7.38,5.83
	c-1.3,1.24-3.47,2.05-5.52,3.6c-2.05,1.55-3.85,3.78-6.33,4.59c-2.48,0.81-6.56,0.24-7.12,0.92c-0.56,0.68,4.32,3.03,11.95,1.61
	C51.41,46.13,51.43,42.83,57.51,43.28z"/>
<path style="fill:#728035;" d="M65.12,4.94c-1.67-0.08-3.78,1.24-3.78,1.24s-3.06,3.73-4.27,12.99c-0.56,4.28,0.05,10.03-0.07,13.2
	c-0.12,3.16-0.81,4.34-0.62,5.96c0.19,1.61,1.88,3.43,5.79,3.39c3.14-0.03,4.76-2.46,4.7-3.33c-0.06-0.87-2.75-9.74-1.99-17.56
	c0.71-7.27,3.36-12.29,3.47-13.34C68.41,6.92,67.66,5.06,65.12,4.94z"/>
</svg>
